static/img/kroki/3957481dc3107ea1742300cf05f1a14a.svg

<?xml version="1.0" encoding="us-ascii" standalone="no"?><svg xmlns="http://www.w3.org/2000/svg" xmlns:xlink="http://www.w3.org/1999/xlink" contentStyleType="text/css" height="645px" preserveAspectRatio="none" style="width:927px;height:645px;" version="1.1" viewBox="0 0 927 645" width="927px" zoomAndPan="magnify"><defs/><g><!--class aws_iam_group--><g id="elem_aws_iam_group"><rect codeLine="23" fill="#3D176E" height="39.7891" id="aws_iam_group" rx="2.5" ry="2.5" style="stroke:#000D19;stroke-width:0.5;" width="173" x="7" y="599.55"/><ellipse cx="22" cy="619.4445" fill="#ADD1B2" rx="11" ry="11" style="stroke:#181818;stroke-width:1.0;"/><path d="M24.9688,625.0852 Q24.3906,625.382 23.75,625.5227 Q23.1094,625.6789 22.4063,625.6789 Q19.9063,625.6789 18.5781,624.0383 Q17.2656,622.382 17.2656,619.257 Q17.2656,616.132 18.5781,614.4758 Q19.9063,612.8195 22.4063,612.8195 Q23.1094,612.8195 23.75,612.9758 Q24.4063,613.132 24.9688,613.4289 L24.9688,616.1477 Q24.3438,615.5695 23.75,615.3039 Q23.1563,615.0227 22.5313,615.0227 Q21.1875,615.0227 20.5,616.1008 Q19.8125,617.1633 19.8125,619.257 Q19.8125,621.3508 20.5,622.4289 Q21.1875,623.4914 22.5313,623.4914 Q23.1563,623.4914 23.75,623.2258 Q24.3438,622.9445 24.9688,622.3664 L24.9688,625.0852 Z " fill="#000000"/><text fill="#D9B8FF" font-family="Helvetica" font-size="17" lengthAdjust="spacing" textLength="131" x="41" y="625.3298">aws_iam_group</text></g><!--class azure_resource_group--><g id="elem_azure_resource_group"><rect codeLine="26" fill="#3D176E" height="39.7891" id="azure_resource_group" rx="2.5" ry="2.5" style="stroke:#000D19;stroke-width:0.5;" width="225" x="215" y="599.55"/><ellipse cx="230" cy="619.4445" fill="#ADD1B2" rx="11" ry="11" style="stroke:#181818;stroke-width:1.0;"/><path d="M232.9688,625.0852 Q232.3906,625.382 231.75,625.5227 Q231.1094,625.6789 230.4063,625.6789 Q227.9063,625.6789 226.5781,624.0383 Q225.2656,622.382 225.2656,619.257 Q225.2656,616.132 226.5781,614.4758 Q227.9063,612.8195 230.4063,612.8195 Q231.1094,612.8195 231.75,612.9758 Q232.4063,613.132 232.9688,613.4289 L232.9688,616.1477 Q232.3438,615.5695 231.75,615.3039 Q231.1563,615.0227 230.5313,615.0227 Q229.1875,615.0227 228.5,616.1008 Q227.8125,617.1633 227.8125,619.257 Q227.8125,621.3508 228.5,622.4289 Q229.1875,623.4914 230.5313,623.4914 Q231.1563,623.4914 231.75,623.2258 Q232.3438,622.9445 232.9688,622.3664 L232.9688,625.0852 Z " fill="#000000"/><text fill="#D9B8FF" font-family="Helvetica" font-size="17" lengthAdjust="spacing" textLength="183" x="249" y="625.3298">azure_resource_group</text></g><!--class group--><g id="elem_group"><rect codeLine="29" fill="#3D176E" height="39.7891" id="group" rx="2.5" ry="2.5" style="stroke:#000D19;stroke-width:0.5;" width="90" x="414.5" y="438.76"/><ellipse cx="429.5" cy="458.6545" fill="#ADD1B2" rx="11" ry="11" style="stroke:#181818;stroke-width:1.0;"/><path d="M432.4688,464.2952 Q431.8906,464.592 431.25,464.7327 Q430.6094,464.8889 429.9063,464.8889 Q427.4063,464.8889 426.0781,463.2483 Q424.7656,461.592 424.7656,458.467 Q424.7656,455.342 426.0781,453.6858 Q427.4063,452.0295 429.9063,452.0295 Q430.6094,452.0295 431.25,452.1858 Q431.9063,452.342 432.4688,452.6389 L432.4688,455.3577 Q431.8438,454.7795 431.25,454.5139 Q430.6563,454.2327 430.0313,454.2327 Q428.6875,454.2327 428,455.3108 Q427.3125,456.3733 427.3125,458.467 Q427.3125,460.5608 428,461.6389 Q428.6875,462.7014 430.0313,462.7014 Q430.6563,462.7014 431.25,462.4358 Q431.8438,462.1545 432.4688,461.5764 L432.4688,464.2952 Z " fill="#000000"/><text fill="#D9B8FF" font-family="Helvetica" font-size="17" lengthAdjust="spacing" textLength="48" x="448.5" y="464.5398">group</text></g><!--class microsoft_graph_group--><g id="elem_microsoft_graph_group"><rect codeLine="32" fill="#3D176E" height="39.7891" id="microsoft_graph_group" rx="2.5" ry="2.5" style="stroke:#000D19;stroke-width:0.5;" width="234" x="475.5" y="599.55"/><ellipse cx="490.5" cy="619.4445" fill="#ADD1B2" rx="11" ry="11" style="stroke:#181818;stroke-width:1.0;"/><path d="M493.4688,625.0852 Q492.8906,625.382 492.25,625.5227 Q491.6094,625.6789 490.9063,625.6789 Q488.4063,625.6789 487.0781,624.0383 Q485.7656,622.382 485.7656,619.257 Q485.7656,616.132 487.0781,614.4758 Q488.4063,612.8195 490.9063,612.8195 Q491.6094,612.8195 492.25,612.9758 Q492.9063,613.132 493.4688,613.4289 L493.4688,616.1477 Q492.8438,615.5695 492.25,615.3039 Q491.6563,615.0227 491.0313,615.0227 Q489.6875,615.0227 489,616.1008 Q488.3125,617.1633 488.3125,619.257 Q488.3125,621.3508 489,622.4289 Q489.6875,623.4914 491.0313,623.4914 Q491.6563,623.4914 492.25,623.2258 Q492.8438,622.9445 493.4688,622.3664 L493.4688,625.0852 Z " fill="#000000"/><text fill="#D9B8FF" font-family="Helvetica" font-size="17" lengthAdjust="spacing" textLength="192" x="509.5" y="625.3298">microsoft_graph_group</text></g><!--class resource--><g id="elem_resource"><rect codeLine="35" fill="#3D176E" height="310.7578" id="resource" rx="2.5" ry="2.5" style="stroke:#000D19;stroke-width:0.5;" width="227" x="346" y="7"/><ellipse cx="414.75" cy="26.8945" fill="#ADD1B2" rx="11" ry="11" style="stroke:#181818;stroke-width:1.0;"/><path d="M417.7188,32.5352 Q417.1406,32.832 416.5,32.9727 Q415.8594,33.1289 415.1563,33.1289 Q412.6563,33.1289 411.3281,31.4883 Q410.0156,29.832 410.0156,26.707 Q410.0156,23.582 411.3281,21.9258 Q412.6563,20.2695 415.1563,20.2695 Q415.8594,20.2695 416.5,20.4258 Q417.1563,20.582 417.7188,20.8789 L417.7188,23.5977 Q417.0938,23.0195 416.5,22.7539 Q415.9063,22.4727 415.2813,22.4727 Q413.9375,22.4727 413.25,23.5508 Q412.5625,24.6133 412.5625,26.707 Q412.5625,28.8008 413.25,29.8789 Q413.9375,30.9414 415.2813,30.9414 Q415.9063,30.9414 416.5,30.6758 Q417.0938,30.3945 417.7188,29.8164 L417.7188,32.5352 Z " fill="#000000"/><text fill="#D9B8FF" font-family="Helvetica" font-size="17" lengthAdjust="spacing" textLength="71" x="440.25" y="32.7798">resource</text><line style="stroke:#000D19;stroke-width:0.5;" x1="347" x2="572" y1="46.7891" y2="46.7891"/><text fill="#D9B8FF" font-family="sans-serif" font-size="14" font-weight="bold" lengthAdjust="spacing" textLength="29" x="357" y="68.7842">age</text><text fill="#D9B8FF" font-family="sans-serif" font-size="14" lengthAdjust="spacing" textLength="66" x="386" y="68.7842">: duration</text><text fill="#D9B8FF" font-family="sans-serif" font-size="14" font-weight="bold" lengthAdjust="spacing" textLength="43" x="357" y="95.0811">atime</text><text fill="#D9B8FF" font-family="sans-serif" font-size="14" lengthAdjust="spacing" textLength="70" x="400" y="95.0811">: datetime</text><text fill="#D9B8FF" font-family="sans-serif" font-size="14" font-weight="bold" lengthAdjust="spacing" textLength="43" x="357" y="121.3779">ctime</text><text fill="#D9B8FF" font-family="sans-serif" font-size="14" lengthAdjust="spacing" textLength="70" x="400" y="121.3779">: datetime</text><text fill="#D9B8FF" font-family="sans-serif" font-size="14" font-weight="bold" lengthAdjust="spacing" textLength="14" x="357" y="147.6748">id</text><text fill="#D9B8FF" font-family="sans-serif" font-size="14" lengthAdjust="spacing" textLength="48" x="371" y="147.6748">: string</text><text fill="#D9B8FF" font-family="sans-serif" font-size="14" font-weight="bold" lengthAdjust="spacing" textLength="33" x="357" y="173.9717">kind</text><text fill="#D9B8FF" font-family="sans-serif" font-size="14" lengthAdjust="spacing" textLength="48" x="390" y="173.9717">: string</text><text fill="#D9B8FF" font-family="sans-serif" font-size="14" font-weight="bold" lengthAdjust="spacing" textLength="90" x="357" y="200.2686">last_access</text><text fill="#D9B8FF" font-family="sans-serif" font-size="14" lengthAdjust="spacing" textLength="66" x="447" y="200.2686">: duration</text><text fill="#D9B8FF" font-family="sans-serif" font-size="14" font-weight="bold" lengthAdjust="spacing" textLength="90" x="357" y="226.5654">last_update</text><text fill="#D9B8FF" font-family="sans-serif" font-size="14" lengthAdjust="spacing" textLength="66" x="447" y="226.5654">: duration</text><text fill="#D9B8FF" font-family="sans-serif" font-size="14" font-weight="bold" lengthAdjust="spacing" textLength="48" x="357" y="252.8623">mtime</text><text fill="#D9B8FF" font-family="sans-serif" font-size="14" lengthAdjust="spacing" textLength="70" x="405" y="252.8623">: datetime</text><text fill="#D9B8FF" font-family="sans-serif" font-size="14" font-weight="bold" lengthAdjust="spacing" textLength="43" x="357" y="279.1592">name</text><text fill="#D9B8FF" font-family="sans-serif" font-size="14" lengthAdjust="spacing" textLength="48" x="400" y="279.1592">: string</text><text fill="#D9B8FF" font-family="sans-serif" font-size="14" font-weight="bold" lengthAdjust="spacing" textLength="34" x="357" y="305.4561">tags</text><text fill="#D9B8FF" font-family="sans-serif" font-size="14" lengthAdjust="spacing" textLength="171" x="391" y="305.4561">: dictionary[string, string]</text></g><!--class slack_usergroup--><g id="elem_slack_usergroup"><rect codeLine="47" fill="#3D176E" height="39.7891" id="slack_usergroup" rx="2.5" ry="2.5" style="stroke:#000D19;stroke-width:0.5;" width="176" x="744.5" y="599.55"/><ellipse cx="759.5" cy="619.4445" fill="#ADD1B2" rx="11" ry="11" style="stroke:#181818;stroke-width:1.0;"/><path d="M762.4688,625.0852 Q761.8906,625.382 761.25,625.5227 Q760.6094,625.6789 759.9063,625.6789 Q757.4063,625.6789 756.0781,624.0383 Q754.7656,622.382 754.7656,619.257 Q754.7656,616.132 756.0781,614.4758 Q757.4063,612.8195 759.9063,612.8195 Q760.6094,612.8195 761.25,612.9758 Q761.9063,613.132 762.4688,613.4289 L762.4688,616.1477 Q761.8438,615.5695 761.25,615.3039 Q760.6563,615.0227 760.0313,615.0227 Q758.6875,615.0227 758,616.1008 Q757.3125,617.1633 757.3125,619.257 Q757.3125,621.3508 758,622.4289 Q758.6875,623.4914 760.0313,623.4914 Q760.6563,623.4914 761.25,623.2258 Q761.8438,622.9445 762.4688,622.3664 L762.4688,625.0852 Z " fill="#000000"/><text fill="#D9B8FF" font-family="Helvetica" font-size="17" lengthAdjust="spacing" textLength="134" x="778.5" y="625.3298">slack_usergroup</text></g><!--reverse link group to aws_iam_group--><g id="link_group_aws_iam_group"><path codeLine="50" d="M398.4769,486.1335 C328.0769,516.6735 208.37,568.61 137.99,599.14 " fill="none" id="group-backto-aws_iam_group" style="stroke:#FFAF37;stroke-width:2.0;"/><polygon fill="none" points="414.99,478.97,396.089,480.6291,400.8647,491.6379,414.99,478.97" style="stroke:#FFAF37;stroke-width:2.0;"/></g><!--reverse link group to azure_resource_group--><g id="link_group_azure_resource_group"><path codeLine="51" d="M432.0736,492.6521 C406.7036,523.1721 368.89,568.66 343.48,599.22 " fill="none" id="group-backto-azure_resource_group" style="stroke:#FFAF37;stroke-width:2.0;"/><polygon fill="none" points="443.58,478.81,427.4596,488.8166,436.6877,496.4876,443.58,478.81" style="stroke:#FFAF37;stroke-width:2.0;"/></g><!--reverse link resource to group--><g id="link_resource_group"><path codeLine="52" d="M459.5,335.85 C459.5,384.14 459.5,413.37 459.5,438.68 " fill="none" id="resource-backto-group" style="stroke:#FFAF37;stroke-width:2.0;"/><polygon fill="none" points="459.5,317.85,453.5,335.85,465.5,335.85,459.5,317.85" style="stroke:#FFAF37;stroke-width:2.0;"/></g><!--reverse link group to microsoft_graph_group--><g id="link_group_microsoft_graph_group"><path codeLine="53" d="M487.0997,492.6075 C512.6697,523.1275 550.8,568.66 576.4,599.22 " fill="none" id="group-backto-microsoft_graph_group" style="stroke:#FFAF37;stroke-width:2.0;"/><polygon fill="none" points="475.54,478.81,482.5006,496.4608,491.6989,488.7543,475.54,478.81" style="stroke:#FFAF37;stroke-width:2.0;"/></g><!--reverse link group to slack_usergroup--><g id="link_group_slack_usergroup"><path codeLine="54" d="M521.4218,486.0204 C593.1618,516.5604 715.44,568.61 787.16,599.14 " fill="none" id="group-backto-slack_usergroup" style="stroke:#FFAF37;stroke-width:2.0;"/><polygon fill="none" points="504.86,478.97,519.0716,491.541,523.7719,480.4998,504.86,478.97" style="stroke:#FFAF37;stroke-width:2.0;"/></g><!--SRC=[XPDBJ-Cm58Nt-HMMs5LKQWSnfOWDKsaqRD08PeTGT6lVf5PZExg-eIgF_puseLKI1zZPvto-ZwDaenKAD3NlXK6pHlAPtsfR0u4HrqHkjtAL8t5I552SBORcRsVvM-0M38e_M3qXQmb3ujz6owr5xyMFZlKBvBOarrZLbcS2wuE5bZlKgWBlhvb9hnl6pZ1gkRueYY4vB7fofkQBdvXWZXJI1pARpTHyEKI-RVNbtaVYNZ-Zc7T3ktMCoPX9YtVgooaZqHaoMVJWVphZNr1AsrASTxIxTYQoI3tzVWFAxI9TGEMxRJmZeUDzZQjaArnUg68n2jzy1cSoHYTWvtCD9ez8BLwoxErWF3U4EQ5t3KbC_KGmMfBphk30Ghr9Nnng1MqoWH8daqkX6WBMpaQ5jMarO8pdeCaHJQie-F2bsZ9Smyvz8VJY7AGC_y6WmxlJrB7Mm34ZVIoqqh4mGzbMr38-0ze_jDxf1_DuNDLN8VMyyKYT5DhZrUjqEkt7tdT6Si-EqRLC-ceq_1un62dx3m00]--></g></svg>

<svg xmlns="http://www.w3.org/2000/svg" width="927" height="645" viewBox="0 0 927 645"><rect width="173" height="39.789" x="7" y="599.55" fill="#3D176E" rx="2.5" ry="2.5" style="stroke:#000d19;stroke-width:.5"/><circle cx="22" cy="619.444" r="11" fill="#ADD1B2" style="stroke:#181818;stroke-width:1"/><path d="M24.969 625.085q-.578.297-1.219.438-.64.156-1.344.156-2.5 0-3.828-1.64-1.312-1.657-1.312-4.782t1.312-4.781q1.328-1.657 3.828-1.657.703 0 1.344.157.656.156 1.219.453v2.719q-.625-.579-1.219-.844-.594-.281-1.219-.281-1.343 0-2.031 1.078-.687 1.062-.687 3.156t.687 3.172q.688 1.062 2.031 1.062.625 0 1.219-.265.594-.282 1.219-.86z"/><text x="41" y="625.33" fill="#D9B8FF" font-family="Helvetica" font-size="17" textLength="131">aws_iam_group</text><rect width="225" height="39.789" x="215" y="599.55" fill="#3D176E" rx="2.5" ry="2.5" style="stroke:#000d19;stroke-width:.5"/><circle cx="230" cy="619.444" r="11" fill="#ADD1B2" style="stroke:#181818;stroke-width:1"/><path d="M232.969 625.085q-.578.297-1.219.438-.64.156-1.344.156-2.5 0-3.828-1.64-1.312-1.657-1.312-4.782t1.312-4.781q1.328-1.657 3.828-1.657.703 0 1.344.157.656.156 1.219.453v2.719q-.625-.579-1.219-.844-.594-.281-1.219-.281-1.344 0-2.031 1.078-.687 1.062-.687 3.156t.687 3.172q.688 1.062 2.031 1.062.625 0 1.219-.265.594-.282 1.219-.86z"/><text x="249" y="625.33" fill="#D9B8FF" font-family="Helvetica" font-size="17" textLength="183">azure_resource_group</text><rect width="90" height="39.789" x="414.5" y="438.76" fill="#3D176E" rx="2.5" ry="2.5" style="stroke:#000d19;stroke-width:.5"/><circle cx="429.5" cy="458.654" r="11" fill="#ADD1B2" style="stroke:#181818;stroke-width:1"/><path d="M432.469 464.295q-.578.297-1.219.438-.64.156-1.344.156-2.5 0-3.828-1.64-1.312-1.657-1.312-4.782t1.312-4.781q1.328-1.656 3.828-1.656.703 0 1.344.156.656.156 1.219.453v2.719q-.625-.579-1.219-.844-.594-.281-1.219-.281-1.344 0-2.031 1.078-.687 1.062-.687 3.156t.687 3.172q.688 1.062 2.031 1.062.625 0 1.219-.265.594-.281 1.219-.86z"/><text x="448.5" y="464.54" fill="#D9B8FF" font-family="Helvetica" font-size="17" textLength="48">group</text><rect width="234" height="39.789" x="475.5" y="599.55" fill="#3D176E" rx="2.5" ry="2.5" style="stroke:#000d19;stroke-width:.5"/><circle cx="490.5" cy="619.444" r="11" fill="#ADD1B2" style="stroke:#181818;stroke-width:1"/><path d="M493.469 625.085q-.578.297-1.219.438-.64.156-1.344.156-2.5 0-3.828-1.64-1.312-1.657-1.312-4.782t1.312-4.781q1.328-1.657 3.828-1.657.703 0 1.344.157.656.156 1.219.453v2.719q-.625-.579-1.219-.844-.594-.281-1.219-.281-1.344 0-2.031 1.078-.687 1.062-.687 3.156t.687 3.172q.688 1.062 2.031 1.062.625 0 1.219-.265.594-.282 1.219-.86z"/><text x="509.5" y="625.33" fill="#D9B8FF" font-family="Helvetica" font-size="17" textLength="192">microsoft_graph_group</text><rect width="227" height="310.758" x="346" y="7" fill="#3D176E" rx="2.5" ry="2.5" style="stroke:#000d19;stroke-width:.5"/><circle cx="414.75" cy="26.895" r="11" fill="#ADD1B2" style="stroke:#181818;stroke-width:1"/><path d="M417.719 32.535q-.578.297-1.219.438-.64.156-1.344.156-2.5 0-3.828-1.64-1.312-1.657-1.312-4.782t1.312-4.781q1.328-1.656 3.828-1.656.703 0 1.344.156.656.156 1.219.453v2.719q-.625-.578-1.219-.844-.594-.281-1.219-.281-1.344 0-2.031 1.078-.687 1.062-.687 3.156t.687 3.172q.688 1.062 2.031 1.062.625 0 1.219-.265.594-.281 1.219-.86z"/><text x="440.25" y="32.78" fill="#D9B8FF" font-family="Helvetica" font-size="17" textLength="71">resource</text><path d="M347 46.789h225" style="stroke:#000d19;stroke-width:.5"/><text x="357" y="68.784" fill="#D9B8FF" font-family="sans-serif" font-size="14" font-weight="bold" textLength="29">age</text><text x="386" y="68.784" fill="#D9B8FF" font-family="sans-serif" font-size="14" textLength="66">: duration</text><text x="357" y="95.081" fill="#D9B8FF" font-family="sans-serif" font-size="14" font-weight="bold" textLength="43">atime</text><text x="400" y="95.081" fill="#D9B8FF" font-family="sans-serif" font-size="14" textLength="70">: datetime</text><text x="357" y="121.378" fill="#D9B8FF" font-family="sans-serif" font-size="14" font-weight="bold" textLength="43">ctime</text><text x="400" y="121.378" fill="#D9B8FF" font-family="sans-serif" font-size="14" textLength="70">: datetime</text><text x="357" y="147.675" fill="#D9B8FF" font-family="sans-serif" font-size="14" font-weight="bold" textLength="14">id</text><text x="371" y="147.675" fill="#D9B8FF" font-family="sans-serif" font-size="14" textLength="48">: string</text><text x="357" y="173.972" fill="#D9B8FF" font-family="sans-serif" font-size="14" font-weight="bold" textLength="33">kind</text><text x="390" y="173.972" fill="#D9B8FF" font-family="sans-serif" font-size="14" textLength="48">: string</text><text x="357" y="200.269" fill="#D9B8FF" font-family="sans-serif" font-size="14" font-weight="bold" textLength="90">last_access</text><text x="447" y="200.269" fill="#D9B8FF" font-family="sans-serif" font-size="14" textLength="66">: duration</text><text x="357" y="226.565" fill="#D9B8FF" font-family="sans-serif" font-size="14" font-weight="bold" textLength="90">last_update</text><text x="447" y="226.565" fill="#D9B8FF" font-family="sans-serif" font-size="14" textLength="66">: duration</text><text x="357" y="252.862" fill="#D9B8FF" font-family="sans-serif" font-size="14" font-weight="bold" textLength="48">mtime</text><text x="405" y="252.862" fill="#D9B8FF" font-family="sans-serif" font-size="14" textLength="70">: datetime</text><text x="357" y="279.159" fill="#D9B8FF" font-family="sans-serif" font-size="14" font-weight="bold" textLength="43">name</text><text x="400" y="279.159" fill="#D9B8FF" font-family="sans-serif" font-size="14" textLength="48">: string</text><text x="357" y="305.456" fill="#D9B8FF" font-family="sans-serif" font-size="14" font-weight="bold" textLength="34">tags</text><text x="391" y="305.456" fill="#D9B8FF" font-family="sans-serif" font-size="14" textLength="171">: dictionary[string, string]</text><rect width="176" height="39.789" x="744.5" y="599.55" fill="#3D176E" rx="2.5" ry="2.5" style="stroke:#000d19;stroke-width:.5"/><circle cx="759.5" cy="619.444" r="11" fill="#ADD1B2" style="stroke:#181818;stroke-width:1"/><path d="M762.469 625.085q-.578.297-1.219.438-.64.156-1.344.156-2.5 0-3.828-1.64-1.312-1.657-1.312-4.782t1.312-4.781q1.328-1.657 3.828-1.657.703 0 1.344.157.656.156 1.219.453v2.719q-.625-.579-1.219-.844-.594-.281-1.219-.281-1.343 0-2.031 1.078-.687 1.062-.687 3.156t.687 3.172q.688 1.062 2.031 1.062.625 0 1.219-.265.594-.282 1.219-.86z"/><text x="778.5" y="625.33" fill="#D9B8FF" font-family="Helvetica" font-size="17" textLength="134">slack_usergroup</text><path fill="none" d="M398.477 486.134c-70.4 30.54-190.107 82.476-260.487 113.006m277-120.17-18.901 1.66 4.776 11.008z" style="stroke:#ffaf37;stroke-width:2"/><g fill="none"><path d="M432.074 492.652c-25.37 30.52-63.184 76.008-88.594 106.568" style="stroke:#ffaf37;stroke-width:2"/><path d="m443.58 478.81-16.12 10.007 9.228 7.67z" style="stroke:#ffaf37;stroke-width:2"/></g><path fill="none" d="M459.5 335.85v102.83m0-120.83-6 18h12zm27.6 174.758c25.57 30.52 63.7 76.052 89.3 106.612M475.54 478.81l6.96 17.65 9.199-7.706z" style="stroke:#ffaf37;stroke-width:2"/><g fill="none"><path d="M521.422 486.02c71.74 30.54 194.018 82.59 265.738 113.12" style="stroke:#ffaf37;stroke-width:2"/><path d="m504.86 478.97 14.212 12.571 4.7-11.041z" style="stroke:#ffaf37;stroke-width:2"/></g></svg>
